src/telerik-icons/solid/filter-add-expression.svg

<?xml version="1.0" encoding="utf-8"?>
<svg xmlns="http://www.w3.org/2000/svg" width="512" height="512" viewBox="0 0 512 512">
  <path d="M480 64v32H32V64h448zm-192 96h192v-32H288v32zm0 128h192v-64H288v64zm0 96h192v-32H288v32zm0 64h192v-32H288v32zM96 352h64v-64h64v-64h-64v-64H96v64H32v64h64v64z"/>
</svg>

<?xml version="1.0" encoding="utf-8"?>
<!-- Generator: Adobe Illustrator 19.2.1, SVG Export Plug-In . SVG Version: 6.00 Build 0)  -->
<svg xmlns="http://www.w3.org/2000/svg" width="512" height="512" viewBox="0 0 512 512">
<path d="M480,64v32H32V64H480z M288,160h192v-32H288V160z M288,288h192v-64H288V288z M288,384h192v-32H288V384z M288,448h192v-32
	H288V448z M96,352h64v-64h64v-64h-64v-64H96v64H32v64h64V352z" />
</svg>
